X: 39077
T: Sweeney's
R: polka
M: 2/4
K: Amajor
|:ef/e/ ce|Ae ce|f/f/f/f/ ec|BA F2|
ef/e/ ce|Ae ce|f/f/f/f/ ec|1 BA A2:|
|:ce fa/f/|ec BA/B/|ce fa/f/|ec B>B|
ce fa/f/|ec BA|ef/e/ cB|1 BA A>B:|

